assets/icons/utility/sentiment_negative.svg

<?xml version="1.0"?><svg xmlns="http://www.w3.org/2000/svg" width="52" height="52" viewBox="0 0 52 52"><path fill="#fff" d="m26 2c-13.2 0-24 10.8-24 24.1s10.8 24.1 24 24.1 24-10.8 24-24.1-10.8-24.1-24-24.1z m-9 13c1.7 0 3 1.8 3 4s-1.3 4-3 4-3-1.8-3-4 1.3-4 3-4z m-3 23.7c0.5-6.1 5-11.2 12.1-11.2 7 0 11.4 5.1 11.9 11.2h-24z m21-15.7c-1.7 0-3-1.8-3-4s1.3-4 3-4 3 1.8 3 4-1.3 4-3 4z"></path></svg>

<svg xmlns="http://www.w3.org/2000/svg" x="0px" y="0px"
	 width="52px" height="52px" viewBox="0 0 52 52" enable-background="new 0 0 52 52" xml:space="preserve">
<path fill="#FFFFFF" d="M26,2C12.8,2,2,12.8,2,26.1c0,13.3,10.8,24.1,24,24.1s24-10.8,24-24.1C50,12.8,39.2,2,26,2z M17,15
	c1.7,0,3,1.8,3,4c0,2.2-1.3,4-3,4c-1.7,0-3-1.8-3-4C14,16.8,15.3,15,17,15z M14,38.7c0.5-6.1,5-11.2,12.1-11.2
	c7,0,11.4,5.1,11.9,11.2H14z M35,23c-1.7,0-3-1.8-3-4c0-2.2,1.3-4,3-4c1.7,0,3,1.8,3,4C38,21.2,36.7,23,35,23z"/>
</svg>
